X:2
T:Ma Navu (Am)
L:1/8
O:Israel
C:J.Spivak
B:V. Pasternak: Great Songs of Israel
Z:John Chambers <jc:trillian.mit.edu>
S:from transcriptions by Terry Traub and Seymour Shlien
M:C|
Q:1/2=60
K:Ador
|: "Am"A2ed e3c | "Dm"d2e2 "Am"c2BA | "G"(Bc)d2 "F"c2(BA) |1 "Em"(B2"Am"c4) "E7"B2 :|2 "Em"(G2"Am"A4) ||
|: GF | "Em"(G2A2) "D"(F3D) | "Em"(GF)G2 "Am"A2GF | "Em"(G2A2) "D"F3D | "Em"(GF E4) |]
